src/assets/duotone/Clock.svg

<svg width="24" height="24" viewBox="0 0 24 24"  xmlns="http://www.w3.org/2000/svg">
<path opacity="0.4" d="M5.5 12C5.5 8.41 8.41 5.5 12 5.5C15.59 5.5 18.5 8.41 18.5 12C18.5 14.08 17.52 15.94 16 17.13H15.99C14.89 17.99 13.51 18.5 12 18.5C10.51 18.5 9.14 18 8.04 17.15H8.03C6.49 15.96 5.5 14.1 5.5 12Z" />
<path d="M8.02979 17.1499H8.03979C9.13979 17.9999 10.5098 18.4999 11.9998 18.4999C13.5098 18.4999 14.8898 17.9899 15.9898 17.1299H15.9998L15.4898 19.5999C14.9998 21.4999 13.8998 21.9999 12.5498 21.9999H11.4598C10.1098 21.9999 8.99979 21.4999 8.51979 19.5899L8.02979 17.1499Z" />
<path d="M8.02979 6.85H8.03979C9.13979 6 10.5098 5.5 11.9998 5.5C13.5098 5.5 14.8898 6.01 15.9898 6.87H15.9998L15.4898 4.4C14.9998 2.5 13.8998 2 12.5498 2H11.4598C10.1098 2 8.99979 2.5 8.51979 4.41L8.02979 6.85Z" />
<path d="M13.4 14.6002C13.21 14.6002 13.02 14.5302 12.87 14.3802L11.47 12.9802C11.33 12.8402 11.25 12.6502 11.25 12.4502V9.66016C11.25 9.25016 11.59 8.91016 12 8.91016C12.41 8.91016 12.75 9.25016 12.75 9.66016V12.1402L13.93 13.3202C14.22 13.6102 14.22 14.0902 13.93 14.3802C13.78 14.5302 13.59 14.6002 13.4 14.6002Z" />
</svg>

<?xml version="1.0" encoding="UTF-8"?>
<svg width="24" height="24" viewBox="0 0 24 24" xmlns="http://www.w3.org/2000/svg">
 <path d="m5.5 12c0-3.59 2.91-6.5 6.5-6.5s6.5 2.91 6.5 6.5c0 2.08-0.98 3.94-2.5 5.13h-0.01c-1.1 0.86-2.48 1.37-3.99 1.37-1.49 0-2.86-0.5-3.96-1.35h-0.01c-1.54-1.19-2.53-3.05-2.53-5.15z" opacity=".4"/>
 <path d="m8.0298 17.15h0.01c1.1 0.85 2.47 1.35 3.96 1.35 1.51 0 2.89-0.51 3.99-1.37h0.01l-0.51 2.47c-0.49 1.9-1.59 2.4-2.94 2.4h-1.09c-1.35 0-2.46-0.5-2.94-2.41l-0.49-2.44z"/>
 <path d="m8.0298 6.85h0.01c1.1-0.85 2.47-1.35 3.96-1.35 1.51 0 2.89 0.51 3.99 1.37h0.01l-0.51-2.47c-0.49-1.9-1.59-2.4-2.94-2.4h-1.09c-1.35 0-2.46 0.5-2.94 2.41l-0.49 2.44z"/>
 <path d="m13.4 14.6c-0.19 0-0.38-0.07-0.53-0.22l-1.4-1.4c-0.14-0.14-0.22-0.33-0.22-0.53v-2.79c0-0.41 0.34-0.75 0.75-0.75s0.75 0.34 0.75 0.75v2.48l1.18 1.18c0.29 0.29 0.29 0.77 0 1.06-0.15 0.15-0.34 0.22-0.53 0.22z"/>
</svg>
